X:236
T:Allemand
O:No 236 William Clarke of Feltwell
M:3/8
L:1/8
N:Although called Allemande, this is in waltz time.
N:In m.s. the first 2 bars are written as 5 semiquavers.
N: Missing bar line between bars B 21 and 22 has been added.
N:In the m.s. the instruction "2 time an octave higher" is written above this tune. It could refer to the 3rd part of the previous tune.
K:Bb
bb/f/d/f/|b/f/d/f/b|geb|f2d|BB/A/B|d2f|fed|d2c::cc/d/e|g2e|cc/d/e|f2d|Bdf|Bdf|bfd|Hc2F|BB/A/B|cc/=B/c|dd/^c/d|e2d|g2f|b2d|fed|{d}c2F|BB/A/B|cc/=B/c|dd/^c/d|e2d|g2f|b2d|cBc|B2z|]

